X:1     %Music
T:The Duke of Marlborough
B: Purslow, F, (1972), The Constant Lovers, EDFS, London
S:William Chubb, Beaminster, Dorset, June 1906
Z:Hammond Dt. 515
F:http://www.folkinfo.org/songs
M:5/4     %Meter
L:1/8     %
K:F
c2 |d=B A2 (G2F2) E2 |F2 GA B4 G2 |(A=B) c2 G2 F2 D2 | C4 z2 z2 
w:Ye gen-e-rals all_ and cham-pi-ons bold, That takes_ de-light in the field,
G2 |c2 d2 ee d2 e2 |c2 (d=B) G4 G2 |c2 d2 (e2d2) (ed) | c4 z2 z2
w: That knocks down pa-la-ces and cas-tle_ walls But now to death_ must_ yield:
 G2 |c2 d2 (e2d2) e2 |c2 (d=B) G4 G2 |c2 d2 e2 d2 (de) | c4 z2 z2 
w:I am an Eng-*lish-man by_ birth, Lord Marl-bo-rough is my_ name,
G2 |(c=B) A2 G2 F2 E2 |F2 (GA) B4 G2 |(A=B) c2 G2 F2 D2 | C4  |]
w:In Dev-*on-shire_ I drew my_ breath That place_ of no_ ted fame 